X: 0773
M: 2/4
L: 1/16
K: A
|:\
|:\
aAce aece | aAgA fAeA | dedB cdcA |  FBBA GBBc |\
aAce aece | fdBf ecAc | dedB cdcA | FBAG A2z2 :|

